X:1
T:Merry Conceit [2], The
T:Merry Conceit [2], The
T:Nathaniel Kynaston
C:Nathaniel Kynaston
L:1/8
M:6/4
K:F
V:1 treble 
V:1
 c2 | f2 a2 f2 g2 b2 g2 | a6 f4 e2 | d2 e2 f2 g2 d2 f2 | e6 c4 B2 | A2 c2 f2 B2 d2 f2 | %6
 A2 c2 f2 G4 B2 | A2 c2 f2 f4 e2 | f- x4 f4 || a2 | g2 e2 c2 c2 e2 f2 | a6 f4 e2 | %12
 d3 e f2 e2 f2 d2 | ^c6 A4 e2 | a f2 a2 f2 e2 a2 e2 | f2 a2 f2 e2 a2 e2 | f3 e d2 A2 d2 ^c2 | %17
 d6- d4 de | f2 e2 d2 c2 B2 A2 | G2 A2 B2 A2 B2 c2 | d3 e f2 g2 d2 f2 | e6 c4 fg | a4 z2 b4 z2 | %23
 a4 z2 g2 e2 c2 | d2 e2 f2 f4 e2 | f6- f4 || %26

